X:18
T:Stormalong, Lads, Stormy
M:C|
L:1/4
Q:1/4=90
K:Eb
F>G AG/F/|EC F2|F2 F>E|C3 B,|
E>F GF/E/|CC A,2|B,>B, B,B,|D E3||
